svgs/sharp-solid/h5.svg

<svg xmlns="http://www.w3.org/2000/svg" viewBox="0 0 640 512"><!--! Font Awesome Pro 6.6.0 by @fontawesome - https://fontawesome.com License - https://fontawesome.com/license (Commercial License) Copyright 2024 Fonticons, Inc. --><path d="M64 96l0-32L0 64 0 96 0 256 0 416l0 32 64 0 0-32 0-128 192 0 0 128 0 32 64 0 0-32 0-160 0-160 0-32-64 0 0 32 0 128L64 224 64 96zM432 64l-28.8 0-3 28.7-16 152L380.5 280l35.5 0 108 0c28.7 0 52 23.3 52 52s-23.3 52-52 52l-64.3 0c-11 0-20.6-7.5-23.3-18.2L431 344.2 369 359.8l5.4 21.6c9.8 39.2 45 66.7 85.4 66.7l64.3 0c64.1 0 116-51.9 116-116s-51.9-116-116-116l-72.5 0 9.3-88L576 128l32 0 0-64-32 0L432 64z"/></svg>

<svg xmlns="http://www.w3.org/2000/svg" viewBox="0 0 640 512"><!--! Font Awesome Pro 6.4.0 by @fontawesome - https://fontawesome.com License - https://fontawesome.com/license (Commercial License) Copyright 2023 Fonticons, Inc. --><path d="M64 96V64H0V96 256 416v32H64V416 288H256V416v32h64V416 256 96 64H256V96 224H64V96zM432 64H403.2l-3 28.7-16 152L380.5 280H416 524c28.7 0 52 23.3 52 52s-23.3 52-52 52H459.7c-11 0-20.6-7.5-23.3-18.2L431 344.2 369 359.8l5.4 21.6c9.8 39.2 45 66.7 85.4 66.7H524c64.1 0 116-51.9 116-116s-51.9-116-116-116H451.5l9.3-88H576h32V64H576 432z"/></svg>
